lib/brands/icons/google-pay-alt.svg

<svg xmlns="http://www.w3.org/2000/svg" fill="none" aria-hidden="true" viewBox="0 0 48 48"><g id="google-pay-alt-Icon"><g id="Group"><path id="Vector" fill="#EA4335" d="M39.1404 14.192C35.4327 12.0518 30.6916 13.3236 28.549 17.0313L23.1479 26.3874C21.5851 29.0892 23.597 30.0333 25.8404 31.3784L31.0375 34.378C32.7975 35.3931 35.0454 34.7905 36.0606 33.0329L41.6129 23.4177C43.4782 20.1866 42.3714 16.0574 39.1404 14.192Z"/><path id="Vector_2" fill="#FBBC04" d="M33.029 18.0646L27.8319 15.065C24.9629 13.4724 23.3383 13.367 22.1604 15.2392L14.4953 28.514C12.355 32.2193 13.6291 36.9582 17.3345 39.0939C20.5655 40.9592 24.6948 39.8523 26.5601 36.6213L34.3719 23.0899C35.3916 21.33 34.7889 19.0797 33.029 18.0646Z"/><path id="Vector_3" fill="#34A853" d="M34.0295 11.2405L30.3791 9.13234C26.3415 6.80187 21.1788 8.18365 18.8483 12.2213L11.8981 24.2586C10.8715 26.0345 11.481 28.3077 13.257 29.332L17.3451 31.6923C19.3638 32.8587 21.9441 32.1667 23.1105 30.1478L31.0506 16.3965C32.6959 13.5481 36.3371 12.5719 39.1854 14.2172L34.0295 11.2405Z"/><path id="Vector_4" fill="#4285F4" d="M19.8356 15.6653L15.8896 13.3922C14.1297 12.3793 11.8818 12.9797 10.8666 14.735L6.13235 22.9157C3.80187 26.9419 5.18365 32.0932 9.2213 34.4169L12.2255 36.1469L15.869 38.2459L17.4501 39.1556C14.643 37.2767 13.7516 33.5117 15.4679 30.5464L16.6939 28.4291L21.183 20.6723C22.1959 18.9216 21.5932 16.6782 19.8356 15.6653Z"/></g></g></svg>

<svg xmlns="http://www.w3.org/2000/svg" fill="none" aria-hidden="true" viewBox="0 0 48 48"><path fill="#EA4335" d="M39.14 14.192a7.756 7.756 0 0 0-10.591 2.84l-5.401 9.355c-1.563 2.702.449 3.646 2.692 4.991l5.198 3a3.678 3.678 0 0 0 5.023-1.345l5.552-9.615a6.753 6.753 0 0 0-2.473-9.226Z"/><path fill="#FBBC04" d="m33.029 18.065-5.197-3c-2.87-1.593-4.494-1.698-5.672.174l-7.665 13.275a7.743 7.743 0 0 0 2.84 10.58 6.753 6.753 0 0 0 9.225-2.473l7.812-13.531a3.674 3.674 0 0 0-1.343-5.025Z"/><path fill="#34A853" d="m34.03 11.24-3.65-2.108a8.44 8.44 0 0 0-11.532 3.09l-6.95 12.037a3.713 3.713 0 0 0 1.359 5.073l4.088 2.36a4.22 4.22 0 0 0 5.765-1.544l7.94-13.752a5.954 5.954 0 0 1 8.135-2.179l-5.156-2.976Z"/><path fill="#4285F4" d="m19.836 15.665-3.946-2.273a3.681 3.681 0 0 0-5.023 1.343l-4.735 8.18c-2.33 4.027-.948 9.178 3.09 11.502l3.004 1.73 3.643 2.099 1.581.91c-2.807-1.88-3.698-5.644-1.982-8.61l1.226-2.117 4.489-7.757a3.663 3.663 0 0 0-1.347-5.007Z"/></svg>
